assets/img/braze_icons/arrows-up.svg

<svg fill="none" height="24" viewBox="0 0 24 24" width="24" xmlns="http://www.w3.org/2000/svg"><g fill="#801ed7"><path d="m7.70711 3.29289c-.39053-.39052-1.02369-.39052-1.41422 0l-4 4c-.39052.39053-.39052 1.02369 0 1.41422.39053.39052 1.02369.39052 1.41422 0l2.29289-2.2929v13.58579c0 .5523.44772 1 1 1 .55229 0 1-.4477 1-1v-13.58579l2.2929 2.2929c.3905.39052 1.0237.39052 1.4142 0 .3905-.39053.3905-1.02369 0-1.41422z"/><path d="m17.7071 8.29289c-.3905-.39052-1.0237-.39052-1.4142 0l-4 4.00001c-.3905.3905-.3905 1.0237 0 1.4142s1.0237.3905 1.4142 0l2.2929-2.2929v8.5858c0 .5523.4477 1 1 1s1-.4477 1-1v-8.5858l2.2929 2.2929c.3905.3905 1.0237.3905 1.4142 0s.3905-1.0237 0-1.4142z"/></g></svg>

<svg width="24" height="24" viewBox="0 0 24 24" fill="none" xmlns="http://www.w3.org/2000/svg">
<path d="M7.70711 3.29289C7.31658 2.90237 6.68342 2.90237 6.29289 3.29289L2.29289 7.29289C1.90237 7.68342 1.90237 8.31658 2.29289 8.70711C2.68342 9.09763 3.31658 9.09763 3.70711 8.70711L6 6.41421L6 20C6 20.5523 6.44772 21 7 21C7.55229 21 8 20.5523 8 20L8 6.41421L10.2929 8.70711C10.6834 9.09763 11.3166 9.09763 11.7071 8.70711C12.0976 8.31658 12.0976 7.68342 11.7071 7.29289L7.70711 3.29289Z" fill="#801ED7"/>
<path d="M17.7071 8.29289C17.3166 7.90237 16.6834 7.90237 16.2929 8.29289L12.2929 12.2929C11.9024 12.6834 11.9024 13.3166 12.2929 13.7071C12.6834 14.0976 13.3166 14.0976 13.7071 13.7071L16 11.4142L16 20C16 20.5523 16.4477 21 17 21C17.5523 21 18 20.5523 18 20V11.4142L20.2929 13.7071C20.6834 14.0976 21.3166 14.0976 21.7071 13.7071C22.0976 13.3166 22.0976 12.6834 21.7071 12.2929L17.7071 8.29289Z" fill="#801ED7"/>
</svg>
